configs/network-icons/poa.svg

<svg width="30" height="30" viewBox="0 0 30 30" fill="none" xmlns="http://www.w3.org/2000/svg">
<path fill-rule="evenodd" clip-rule="evenodd" d="M10 2.3C10 2.13431 10.1343 2 10.3 2H17.5H18L17.9933 2.02182C20.7998 2.27128 23 4.62869 23 7.5C23 10.5376 20.5376 13 17.5 13H16V14.7C16 14.8657 15.8657 15 15.7 15H10.3C10.1343 15 10 14.8657 10 14.7V2.3ZM30 20.5C30 24.366 26.866 27.5 23 27.5C19.134 27.5 16 24.366 16 20.5C16 16.634 19.134 13.5 23 13.5C26.866 13.5 30 16.634 30 20.5ZM7.82829 14.2876C7.90588 14.1577 8.09414 14.1577 8.17174 14.2876L15.8194 27.0975C15.899 27.2308 15.8029 27.4 15.6477 27.4H0.352346C0.197083 27.4 0.101033 27.2308 0.180622 27.0975L7.82829 14.2876Z" fill="#5B2DA4"/>
</svg>

<svg xmlns="http://www.w3.org/2000/svg" fill="none" viewBox="0 0 30 30">
  <path fill="#5B2DA4" fill-rule="evenodd" d="M10 2.3a.3.3 0 0 1 .3-.3H18l-.007.022A5.5 5.5 0 0 1 17.5 13H16v1.7a.3.3 0 0 1-.3.3h-5.4a.3.3 0 0 1-.3-.3V2.3Zm20 18.2a7 7 0 1 1-14 0 7 7 0 0 1 14 0ZM7.828 14.288a.2.2 0 0 1 .344 0l7.647 12.81a.2.2 0 0 1-.171.302H.352a.2.2 0 0 1-.171-.302l7.647-12.81Z" clip-rule="evenodd"/>
</svg>
